X:643
T:If all the world ware paper.
C:John Malchair's Third Collection of Tunes
F:https://www.vwml.org/record/Malchair/3619/p64
F:www.vwml.org/topics/historic-dance-and-tune-books/Malchair
Z:Eric Conrad Feb 2020
N:NB1 Repeat added.
N:NB2 Meter changed from 6/4 to 6/8.  Note lengths changed accordingly.
M:6/8   % originally 6/4
L:1/8   % originally L:1/4
W:Duplication coll.2d. p.35 - and p.[1]7. % the second page number is unclear in MS.
K:C
|: "_NB1,2"G | A2G A2B | c3 D2D | E2D E2F | G3- G2E |
F2E F2G | AF2 C2c | d2G A2B | c3- c2 :|

